assets/img/braze_icons/share-02-alt.svg

<svg fill="none" height="24" viewBox="0 0 24 24" width="24" xmlns="http://www.w3.org/2000/svg"><g fill="#801ed7"><path d="m11.2929 2.29289c.3905-.39052 1.0237-.39052 1.4142 0l4 4c.3905.39053.3905 1.02369 0 1.41422-.3905.39052-1.0237.39052-1.4142 0l-2.2929-2.2929v9.58579c0 .5523-.4477 1-1 1s-1-.4477-1-1v-9.58579l-2.29289 2.2929c-.39053.39052-1.02369.39052-1.41422 0-.39052-.39053-.39052-1.02369 0-1.41422z"/><path d="m9 11.6c0-.56 0-.84-.10899-1.0539-.09588-.1882-.24886-.3412-.43702-.4371-.21391-.109-.49394-.109-1.05399-.109h-.53761c-.79538-.00038-1.38604-.0007-1.89769.1364-1.38037.3699-2.45856 1.4481-2.82843 2.8284-.1371.5117-.13678 1.1023-.13634 1.8977l.00004 1.3789c-.00001.805-.00002 1.4693.0442 2.0105.04592.5621.14449 1.0788.39178 1.5642.38349.7526.99541 1.3645 1.74806 1.748.48534.2473 1.00204.3459 1.56414.3918.5412.0442 1.20557.0442 2.01055.0442h8.4826c.8049 0 1.4693 0 2.0105-.0442.5621-.0459 1.0788-.1445 1.5641-.3918.7527-.3835 1.3646-.9954 1.7481-1.748.2473-.4854.3459-1.0021.3918-1.5642.0442-.5412.0442-1.2055.0442-2.0105v-1.3789c.0005-.7954.0008-1.386-.1363-1.8977-.3699-1.3803-1.4481-2.4585-2.8284-2.8284-.5117-.1371-1.1024-.13678-1.8977-.1364h-.5376c-.5601 0-.8401 0-1.054.109-.1882.0959-.3411.2489-.437.4371-.109.2139-.109.4939-.109 1.0539v3.4c0 1.6569-1.3431 3-3 3s-3-1.3431-3-3z"/></g></svg>

<svg width="24" height="24" viewBox="0 0 24 24" fill="none" xmlns="http://www.w3.org/2000/svg">
<path d="M11.2929 2.29289C11.6834 1.90237 12.3166 1.90237 12.7071 2.29289L16.7071 6.29289C17.0976 6.68342 17.0976 7.31658 16.7071 7.70711C16.3166 8.09763 15.6834 8.09763 15.2929 7.70711L13 5.41421L13 15C13 15.5523 12.5523 16 12 16C11.4477 16 11 15.5523 11 15L11 5.41421L8.70711 7.70711C8.31658 8.09763 7.68342 8.09763 7.29289 7.70711C6.90237 7.31658 6.90237 6.68342 7.29289 6.29289L11.2929 2.29289Z" fill="#801ED7"/>
<path d="M9 11.6C9 11.04 9 10.76 8.89101 10.5461C8.79513 10.3579 8.64215 10.2049 8.45399 10.109C8.24008 10 7.96005 10 7.4 10H6.86239C6.06701 9.99962 5.47635 9.9993 4.9647 10.1364C3.58433 10.5063 2.50614 11.5845 2.13627 12.9648C1.99917 13.4765 1.99949 14.0671 1.99993 14.8625L1.99997 16.2414C1.99996 17.0464 1.99995 17.7107 2.04417 18.2519C2.09009 18.814 2.18866 19.3307 2.43595 19.8161C2.81944 20.5687 3.43136 21.1806 4.18401 21.5641C4.66935 21.8114 5.18605 21.91 5.74815 21.9559C6.28935 22.0001 6.95372 22.0001 7.7587 22.0001H16.2413C17.0462 22.0001 17.7106 22.0001 18.2518 21.9559C18.8139 21.91 19.3306 21.8114 19.8159 21.5641C20.5686 21.1806 21.1805 20.5687 21.564 19.8161C21.8113 19.3307 21.9099 18.814 21.9558 18.2519C22 17.7107 22 17.0464 22 16.2414L22 14.8625C22.0005 14.0671 22.0008 13.4765 21.8637 12.9648C21.4938 11.5845 20.4156 10.5063 19.0353 10.1364C18.5236 9.9993 17.9329 9.99962 17.1376 10H16.6C16.0399 10 15.7599 10 15.546 10.109C15.3578 10.2049 15.2049 10.3579 15.109 10.5461C15 10.76 15 11.04 15 11.6V15C15 16.6569 13.6569 18 12 18C10.3431 18 9 16.6569 9 15V11.6Z" fill="#801ED7"/>
</svg>
